X:157
T:Steirer
C:traditionell
R:Steirer
A:Bad Ischl, Salzkammergut
B:"Pfeifermusik aus Bad Ischl", Lois Blamberger, 3. Auflage, Bad Ischl 1990
S:im buch mit der Angabe: aus der Sammlung vom Blamberger Lois
N:im buch in D, nr. 4/5
Z:abc transcription Simon Wascher
M:3/4
L:1/8
K:D
V:1
(fg) |\
a2 (fe dB | A2) (cdef | g2) (edcB | A2) (defg |\
a2) (fe dB | A2) (cdef | g2) (ec Ac) | d2 z2 :|
V:2
(de) |\
f2 (dA FD | E2) (ABcd | e2) cB AG | F2 (FA de |\
f2) (dA FD | E2) (AB cd | e2) (cA GA | F2) z2 :|
V:1
P:Ausgang
d2 z2 d2 | (cEAc) Ec | ""d4 (AF) | D4 (FA) | Hd4 z2 |]
V:2
f2 z2 a2 | (gAce) Aa | ""f4 (dA) | F4 (Ad) | Hf4 z2 |]
